;FLAVOR:Marlin
;TIME:3115
;Filament used: 1.88535m
;Layer height: 0.15
;MINX:89
;MINY:89
;MINZ:0.25
;MAXX:131
;MAXY:131
;MAXZ:20.05
;TARGET_MACHINE.NAME:Creality Ender-3
;Generated with Cura_SteamEngine 5.10.0
M140 S70
M105
M190 S70
M104 S232
M105
M109 S232
; Ender 3 Custom Start G-code
G92 E0 ; Reset Extruder
G28 ; Home all axes
G1 Z2.0 F3000 ; Move Z Axis up little to prevent scratching of Heat Bed
G1 X0.1 Y20 Z0.3 F5000.0 ; Move to start position
G1 X0.1 Y200.0 Z0.3 F1500.0 E15 ; Draw the first line
G1 X0.4 Y200.0 Z0.3 F5000.0 ; Move to side a little
G1 X0.4 Y20 Z0.3 F1500.0 E30 ; Draw the second line
G92 E0 ; Reset Extruder
G1 Z2.0 F3000 ; Move Z Axis up little to prevent scratching of Heat Bed
G1 X5 Y20 Z0.3 F5000.0 ; Move over to prevent blob squish
M82 ;absolute extrusion mode
G92 E0
G92 E0
G1 F2700 E-10
;LAYER_COUNT:133
;LAYER:0
M107
G0 F6000 X92.456 Y92.013 Z0.25
;TYPE:SKIRT
G1 F2700 E0
G1 F900 X93.192 Y91.376 E0.04047
G1 X93.924 Y90.846 E0.07804
G1 X94.821 Y90.311 E0.12146
G1 X95.699 Y89.89 E0.16195
G1 X96.612 Y89.548 E0.20248
G1 X97.549 Y89.289 E0.2429
G1 X98.516 Y89.111 E0.28378
G1 X99.655 Y89.015 E0.3313
G1 X100.312 Y89 E0.35862
G1 X119.304 Y89 E1.14821
G1 X120.184 Y89.013 E1.1848
G1 X121.156 Y89.072 E1.22529
G1 X122.119 Y89.218 E1.26578
G1 X123.066 Y89.449 E1.30631
G1 X123.954 Y89.749 E1.34528
G1 X124.846 Y90.139 E1.38575
G1 X125.729 Y90.626 E1.42768
G1 X126.48 Y91.128 E1.46523
G1 X127.295 Y91.786 E1.50878
G1 X127.993 Y92.464 E1.54924
G1 X128.629 Y93.201 E1.58971
G1 X129.199 Y93.991 E1.63021
G1 X129.661 Y94.767 E1.66776
G1 X130.115 Y95.709 E1.71124
G1 X130.444 Y96.587 E1.75022
G1 X130.713 Y97.559 E1.79215
G1 X130.89 Y98.525 E1.83298
G1 X130.985 Y99.655 E1.88012
G1 X131 Y100.33 E1.90819
G1 X130.999 Y119.4 E2.70103
G1 X130.988 Y120.163 E2.73276
G1 X130.931 Y121.136 E2.77328
G1 X130.786 Y122.099 E2.81377
G1 X130.557 Y123.045 E2.85423
G1 X130.246 Y123.969 E2.89477
G1 X129.854 Y124.86 E2.93524
G1 X129.386 Y125.712 E2.97565
G1 X128.864 Y126.493 E3.0147
G1 X128.231 Y127.278 E3.05663
G1 X127.606 Y127.929 E3.09415
G1 X126.817 Y128.617 E3.13767
G1 X126.057 Y129.167 E3.17668
G1 X125.19 Y129.684 E3.21864
G1 X124.312 Y130.106 E3.25914
G1 X123.401 Y130.448 E3.2996
G1 X122.462 Y130.709 E3.34012
G1 X121.496 Y130.887 E3.38096
G1 X120.345 Y130.985 E3.42898
G1 X119.67 Y131 E3.45705
G1 X100.564 Y130.999 E4.25139
G1 X99.831 Y130.988 E4.28187
G1 X98.859 Y130.931 E4.32235
G1 X97.896 Y130.785 E4.36284
G1 X96.95 Y130.556 E4.40331
G1 X96.026 Y130.244 E4.44385
G1 X95.136 Y129.852 E4.48429
G1 X94.313 Y129.401 E4.5233
G1 X93.474 Y128.84 E4.56526
G1 X92.77 Y128.274 E4.60282
G1 X92.017 Y127.549 E4.64628
G1 X91.38 Y126.813 E4.68675
G1 X90.85 Y126.082 E4.72428
G1 X90.314 Y125.185 E4.76773
G1 X89.892 Y124.307 E4.80823
G1 X89.55 Y123.395 E4.84872
G1 X89.29 Y122.457 E4.88919
G1 X89.112 Y121.488 E4.93015
G1 X89.014 Y120.309 E4.97934
G1 X89 Y119.658 E5.00641
G1 X89.001 Y100.525 E5.80187
G1 X89.012 Y99.825 E5.83097
G1 X89.07 Y98.852 E5.8715
G1 X89.216 Y97.889 E5.91199
G1 X89.446 Y96.943 E5.95247
G1 X89.759 Y96.02 E5.99299
G1 X90.151 Y95.13 E6.03342
G1 X90.621 Y94.277 E6.07391
G1 X91.164 Y93.469 E6.11438
G1 X91.731 Y92.765 E6.15197
G1 X92.456 Y92.013 E6.19539
G0 F6000 X92.718 Y92.315
G1 F900 X93.427 Y91.7 E6.23442
G1 X94.159 Y91.17 E6.27199
G1 X94.995 Y90.671 E6.31247
G1 X95.84 Y90.264 E6.35146
G1 X96.719 Y89.933 E6.39051
G1 X97.622 Y89.682 E6.42947
G1 X98.55 Y89.51 E6.46871
G1 X99.689 Y89.414 E6.51624
G1 X100.321 Y89.4 E6.54252
G1 X119.298 Y89.4 E7.33149
G1 X120.16 Y89.412 E7.36733
G1 X121.097 Y89.468 E7.40636
G1 X122.025 Y89.607 E7.44537
G1 X122.938 Y89.828 E7.48442
G1 X123.794 Y90.116 E7.52197
G1 X124.686 Y90.506 E7.56245
G1 X125.507 Y90.959 E7.60143
G1 X126.258 Y91.461 E7.63899
G1 X127.017 Y92.073 E7.67952
G1 X127.691 Y92.726 E7.71854
G1 X128.305 Y93.435 E7.75753
G1 X128.855 Y94.196 E7.79657
G1 X129.317 Y94.972 E7.83412
G1 X129.74 Y95.849 E7.8746
G1 X130.069 Y96.727 E7.91358
G1 X130.32 Y97.632 E7.95262
G1 X130.491 Y98.559 E7.99182
G1 X130.586 Y99.689 E8.03896
G1 X130.6 Y100.33 E8.06562
G1 X130.599 Y119.395 E8.85825
G1 X130.589 Y120.14 E8.88922
G1 X130.535 Y121.077 E8.92824
G1 X130.397 Y122.006 E8.96729
G1 X130.178 Y122.918 E9.00629
G1 X129.88 Y123.808 E9.04531
G1 X129.503 Y124.668 E9.08435
G1 X129.053 Y125.49 E9.12331
G1 X128.531 Y126.271 E9.16236
G1 X127.942 Y127.001 E9.20136
G1 X127.317 Y127.652 E9.23888
G1 X126.582 Y128.293 E9.27942
G1 X125.822 Y128.843 E9.31843
G1 X125.016 Y129.324 E9.35745
G1 X124.171 Y129.732 E9.39646
G1 X123.293 Y130.063 E9.43547
G1 X122.389 Y130.316 E9.4745
G1 X121.462 Y130.488 E9.5137
G1 X120.311 Y130.586 E9.56173
G1 X119.67 Y130.6 E9.58838
G1 X100.57 Y130.599 E10.38247
G1 X99.854 Y130.589 E10.41224
G1 X98.918 Y130.535 E10.45122
G1 X97.989 Y130.396 E10.49027
G1 X97.077 Y130.177 E10.52927
G1 X96.187 Y129.878 E10.5683
G1 X95.328 Y129.501 E10.6073
G1 X94.505 Y129.05 E10.64632
G1 X93.725 Y128.528 E10.68534
G1 X93.021 Y127.962 E10.72289
G1 X92.319 Y127.287 E10.76338
G1 X91.704 Y126.578 E10.8024
G1 X91.174 Y125.847 E10.83994
G1 X90.674 Y125.011 E10.88044
G1 X90.266 Y124.166 E10.91945
G1 X89.935 Y123.288 E10.95846
G1 X89.683 Y122.384 E10.99748
G1 X89.511 Y121.455 E11.03676
G1 X89.413 Y120.276 E11.08595
G1 X89.4 Y119.658 E11.11165
G1 X89.401 Y100.531 E11.90685
G1 X89.411 Y99.848 E11.93525
G1 X89.466 Y98.911 E11.97428
G1 X89.605 Y97.983 E12.01329
G1 X89.825 Y97.071 E12.05229
G1 X90.125 Y96.181 E12.09134
G1 X90.502 Y95.322 E12.13034
G1 X90.953 Y94.5 E12.16932
G1 X91.476 Y93.72 E12.20837
G1 X92.043 Y93.016 E12.24595
G1 X92.718 Y92.315 E12.28641
G0 F6000 X92.981 Y92.617
G1 F900 X93.662 Y92.024 E12.32395
G1 X94.394 Y91.494 E12.36152
G1 X95.169 Y91.031 E12.39905
G1 X95.982 Y90.638 E12.4366
G1 X96.827 Y90.318 E12.47416
G1 X97.696 Y90.075 E12.51168
G1 X98.584 Y89.909 E12.54924
G1 X99.723 Y89.813 E12.59676
G1 X100.33 Y89.8 E12.622
G1 X119.293 Y89.8 E13.41039
G1 X120.137 Y89.811 E13.44548
G1 X121.039 Y89.864 E13.48305
G1 X121.932 Y89.996 E13.52058
G1 X122.81 Y90.207 E13.55812
G1 X123.666 Y90.495 E13.59567
G1 X124.493 Y90.857 E13.6332
G1 X125.285 Y91.292 E13.67077
G1 X126.036 Y91.794 E13.70832
G1 X126.739 Y92.361 E13.74587
G1 X127.389 Y92.988 E13.78342
G1 X127.981 Y93.67 E13.82097
G1 X128.511 Y94.401 E13.85851
G1 X128.973 Y95.177 E13.89605
G1 X129.366 Y95.99 E13.9336
G1 X129.684 Y96.835 E13.97113
G1 X129.927 Y97.705 E14.00869
G1 X130.092 Y98.593 E14.04624
G1 X130.187 Y99.723 E14.09338
G1 X130.2 Y100.33 E14.11862
G1 X130.199 Y119.39 E14.91105
G1 X130.19 Y120.117 E14.94127
G1 X130.139 Y121.019 E14.97884
G1 X130.008 Y121.913 E15.0164
G1 X129.799 Y122.791 E15.05392
G1 X129.513 Y123.648 E15.09149
G1 X129.152 Y124.476 E15.12904
G1 X128.72 Y125.268 E15.16655
G1 X128.219 Y126.02 E15.20411
G1 X127.653 Y126.724 E15.24167
G1 X127.028 Y127.375 E15.27919
G1 X126.347 Y127.969 E15.31676
G1 X125.616 Y128.5 E15.35432
G1 X124.842 Y128.964 E15.39184
G1 X124.029 Y129.358 E15.4294
G1 X123.185 Y129.678 E15.46693
G1 X122.315 Y129.923 E15.50451
G1 X121.428 Y130.089 E15.54202
G1 X120.277 Y130.187 E15.59005
G1 X119.67 Y130.2 E15.61529
G1 X100.575 Y130.199 E16.40917
G1 X99.877 Y130.19 E16.43819
G1 X98.976 Y130.139 E16.47571
G1 X98.082 Y130.007 E16.51328
G1 X97.204 Y129.798 E16.5508
G1 X96.347 Y129.511 E16.58838
G1 X95.52 Y129.15 E16.62589
G1 X94.727 Y128.717 E16.66346
G1 X93.976 Y128.216 E16.70099
G1 X93.272 Y127.65 E16.73855
G1 X92.621 Y127.024 E16.7761
G1 X92.028 Y126.343 E16.81364
G1 X91.498 Y125.612 E16.85118
G1 X91.034 Y124.837 E16.88873
G1 X90.64 Y124.024 E16.92629
G1 X90.32 Y123.18 E16.96382
G1 X90.076 Y122.31 E17.00138
G1 X89.91 Y121.422 E17.03894
G1 X89.813 Y120.267 E17.08713
G1 X89.8 Y119.658 E17.11246
G1 X89.801 Y100.536 E17.90746
G1 X89.81 Y99.871 E17.93511
G1 X89.862 Y98.969 E17.97267
G1 X89.994 Y98.076 E18.0102
G1 X90.204 Y97.198 E18.04773
G1 X90.491 Y96.341 E18.08531
G1 X90.853 Y95.514 E18.12284
G1 X91.286 Y94.722 E18.16037
G1 X91.788 Y93.971 E18.19792
G1 X92.355 Y93.267 E18.2355
G1 X92.981 Y92.617 E18.27302
G1 F2700 E8.27302
;MESH:xyzCalibration_cube.stl
G0 F6000 X100.424 Y99.335
G0 X100.424 Y100.424
G0 X101.572 Y118.428
G0 X110 Y118.6
;TYPE:WALL-INNER
G1 F2700 E18.27302
G1 F1800 X118.6 Y118.6 E18.63057
G1 X118.6 Y101.4 E19.34566
G1 X101.4 Y101.4 E20.06075
G1 X101.4 Y118.6 E20.77585
G1 X110 Y118.6 E21.13339
G0 F6000 X110 Y119
G1 F1800 X119 Y119 E21.50757
G1 X119 Y101 E22.25592
G1 X101 Y101 E23.00428
G1 X101 Y119 E23.75263
G1 X110 Y119 E24.12681
G0 F6000 X110 Y119.4
G1 F1800 X119.4 Y119.4 E24.51761
G1 X119.4 Y100.6 E25.29923
G1 X100.6 Y100.6 E26.08084
G1 X100.6 Y119.4 E26.86245
G1 X110 Y119.4 E27.25326
G0 F6000 X110 Y119.8
;TYPE:WALL-OUTER
G1 F1800 X119.8 Y119.8 E27.6607
G1 X119.8 Y100.2 E28.47557
G1 X100.2 Y100.2 E29.29044
G1 X100.2 Y119.8 E30.10532
G1 X110 Y119.8 E30.51275
G0 F6000 X110 Y119.49
G0 X110 Y118.5
G0 X110 Y118.24
;TYPE:SKIN
G1 F1800 X101.76 Y118.24 E30.85533
G1 X101.76 Y101.76 E31.54049
G1 X118.24 Y101.76 E32.22565
G1 X118.24 Y118.24 E32.91081
G1 X110 Y118.24 E33.25339
G0 F6000 X110 Y118.5
G0 X102.2 Y118.5
G0 X102.2 Y118.039
G1 F1800 X101.96 Y117.799 E33.2675
G0 F6000 X101.96 Y117.233
G1 F1800 X102.766 Y118.039 E33.31489
G0 F6000 X103.332 Y118.039
G1 F1800 X101.96 Y116.668 E33.39553
G0 F6000 X101.96 Y116.102
G1 F1800 X103.897 Y118.039 E33.50942
G0 F6000 X104.463 Y118.039
G1 F1800 X101.96 Y115.536 E33.65658
G0 F6000 X101.96 Y114.971
G1 F1800 X105.029 Y118.039 E33.837
G0 F6000 X105.594 Y118.039
G1 F1800 X101.96 Y114.405 E34.05066
G0 F6000 X101.96 Y113.839
G1 F1800 X106.16 Y118.039 E34.29761
G0 F6000 X106.726 Y118.039
G1 F1800 X101.96 Y113.274 E34.5778
G0 F6000 X101.96 Y112.708
G1 F1800 X107.291 Y118.039 E34.89124
G0 F6000 X107.857 Y118.039
G1 F1800 X101.96 Y112.142 E35.23796
G0 F6000 X101.96 Y111.577
G1 F1800 X108.423 Y118.039 E35.61793
G0 F6000 X108.988 Y118.039
G1 F1800 X101.96 Y111.011 E36.03115
G0 F6000 X101.96 Y110.445
G1 F1800 X109.554 Y118.039 E36.47765
G0 F6000 X110.12 Y118.039
G1 F1800 X101.96 Y109.879 E36.95743
G0 F6000 X101.96 Y109.314
G1 F1800 X110.686 Y118.039 E37.47045
G0 F6000 X111.251 Y118.039
G1 F1800 X101.96 Y108.748 E38.01673
G0 F6000 X101.96 Y108.182
G1 F1800 X111.817 Y118.039 E38.59628
G0 F6000 X112.383 Y118.039
G1 F1800 X101.96 Y107.617 E39.20909
G0 F6000 X101.96 Y107.051
G1 F1800 X112.948 Y118.039 E39.85514
G0 F6000 X113.514 Y118.039
G1 F1800 X101.96 Y106.485 E40.53447
G0 F6000 X101.96 Y105.92
G1 F1800 X114.08 Y118.039 E41.24705
G0 F6000 X114.645 Y118.039
G1 F1800 X101.96 Y105.354 E41.99288
G0 F6000 X101.96 Y104.788
G1 F1800 X115.211 Y118.039 E42.77199
G0 F6000 X115.777 Y118.039
G1 F1800 X101.96 Y104.223 E43.58434
G0 F6000 X101.96 Y103.657
G1 F1800 X116.342 Y118.039 E44.42995
G0 F6000 X116.908 Y118.039
G1 F1800 X101.96 Y103.091 E45.30884
G0 F6000 X101.96 Y102.526
G1 F1800 X117.474 Y118.039 E46.22097
G0 F6000 X118.04 Y118.04
G1 F1800 X101.96 Y101.96 E47.16641
G0 F6000 X102.526 Y101.96
G1 F1800 X118.04 Y117.474 E48.07858
G0 F6000 X118.04 Y116.909
G1 F1800 X103.091 Y101.96 E48.95752
G0 F6000 X103.657 Y101.96
G1 F1800 X118.04 Y116.343 E49.80319
G0 F6000 X118.04 Y115.777
G1 F1800 X104.223 Y101.96 E50.61557
G0 F6000 X104.788 Y101.96
G1 F1800 X118.04 Y115.212 E51.39474
G0 F6000 X118.04 Y114.646
G1 F1800 X105.354 Y101.96 E52.14063
G0 F6000 X105.92 Y101.96
G1 F1800 X118.04 Y114.08 E52.85324
G0 F6000 X118.04 Y113.515
G1 F1800 X106.485 Y101.96 E53.53263
G0 F6000 X107.051 Y101.96
G1 F1800 X118.04 Y112.949 E54.17874
G0 F6000 X118.04 Y112.383
G1 F1800 X107.617 Y101.96 E54.79157
G0 F6000 X108.182 Y101.96
G1 F1800 X118.04 Y111.818 E55.37118
G0 F6000 X118.04 Y111.252
G1 F1800 X108.748 Y101.96 E55.91752
G0 F6000 X109.314 Y101.96
G1 F1800 X118.04 Y110.686 E56.43057
G0 F6000 X118.04 Y110.121
G1 F1800 X109.879 Y101.96 E56.91041
G0 F6000 X110.445 Y101.96
G1 F1800 X118.04 Y109.555 E57.35696
G0 F6000 X118.04 Y108.989
G1 F1800 X111.011 Y101.96 E57.77024
G0 F6000 X111.577 Y101.96
G1 F1800 X118.04 Y108.424 E58.15027
G0 F6000 X118.04 Y107.858
G1 F1800 X112.142 Y101.96 E58.49705
G0 F6000 X112.708 Y101.96
G1 F1800 X118.04 Y107.292 E58.81055
G0 F6000 X118.04 Y106.726
G1 F1800 X113.274 Y101.96 E59.09078
G0 F6000 X113.839 Y101.96
G1 F1800 X118.04 Y106.161 E59.33778
G0 F6000 X118.04 Y105.595
G1 F1800 X114.405 Y101.96 E59.5515
G0 F6000 X114.971 Y101.96
G1 F1800 X118.04 Y105.029 E59.73195
G0 F6000 X118.04 Y104.464
G1 F1800 X115.536 Y101.96 E59.87917
G0 F6000 X116.102 Y101.96
G1 F1800 X118.04 Y103.898 E59.99312
G0 F6000 X118.04 Y103.332
G1 F1800 X116.668 Y101.96 E60.07379
G0 F6000 X117.233 Y101.96
G1 F1800 X118.04 Y102.767 E60.12124
G0 F6000 X118.04 Y102.201
G1 F1800 X117.799 Y101.96 E60.13541
G0 F6000 X117.799 Y101.21
G1 F2700 E50.13541
;MESH:NONMESH
G0 F300 X117.799 Y101.21 Z0.4
G0 F6000 X100.424 Y100.424
G0 X100.424 Y99.335
G0 X92.981 Y92.617
;TIME_ELAPSED:76.123178
;LAYER:1
M106 S85
;TYPE:SKIRT
G1 F2700 E60.13541
G1 F900 X93.662 Y92.024 E60.15793
G1 X94.394 Y91.494 E60.18048
G1 X95.169 Y91.031 E60.203
G1 X95.982 Y90.638 E60.22552
G1 X96.827 Y90.318 E60.24806
G1 X97.696 Y90.075 E60.27057
G1 X98.584 Y89.909 E60.2931
G1 X99.723 Y89.813 E60.32162
G1 X100.33 Y89.8 E60.33676
G1 X119.293 Y89.8 E60.8098
G1 X120.137 Y89.811 E60.83085
G1 X121.039 Y89.864 E60.85339
G1 X121.932 Y89.996 E60.87591
G1 X122.81 Y90.207 E60.89843
G1 X123.666 Y90.495 E60.92096
G1 X124.493 Y90.857 E60.94348
G1 X125.285 Y91.292 E60.96602
G1 X126.036 Y91.794 E60.98856
G1 X126.739 Y92.361 E61.01109
G1 X127.389 Y92.988 E61.03362
G1 X127.981 Y93.67 E61.05614
G1 X128.511 Y94.401 E61.07867
G1 X128.973 Y95.177 E61.10119
G1 X129.366 Y95.99 E61.12372
G1 X129.684 Y96.835 E61.14624
G1 X129.927 Y97.705 E61.16878
G1 X130.092 Y98.593 E61.19131
G1 X130.187 Y99.723 E61.21959
G1 X130.2 Y100.33 E61.23474
G1 X130.199 Y119.39 E61.71019
G1 X130.19 Y120.117 E61.72833
G1 X130.139 Y121.019 E61.75086
G1 X130.008 Y121.913 E61.7734
G1 X129.799 Y122.791 E61.79592
G1 X129.513 Y123.648 E61.81845
G1 X129.152 Y124.476 E61.84099
G1 X128.72 Y125.268 E61.86349
G1 X128.219 Y126.02 E61.88603
G1 X127.653 Y126.724 E61.90856
G1 X127.028 Y127.375 E61.93108
G1 X126.347 Y127.969 E61.95362
G1 X125.616 Y128.5 E61.97616
G1 X124.842 Y128.964 E61.99867
G1 X124.029 Y129.358 E62.0212
G1 X123.185 Y129.678 E62.04372
G1 X122.315 Y129.923 E62.06627
G1 X121.428 Y130.089 E62.08878
G1 X120.277 Y130.187 E62.11759
G1 X119.67 Y130.2 E62.13274
G1 X100.575 Y130.199 E62.60906
G1 X99.877 Y130.19 E62.62648
G1 X98.976 Y130.139 E62.64899
G1 X98.082 Y130.007 E62.67153
G1 X97.204 Y129.798 E62.69405
G1 X96.347 Y129.511 E62.71659
G1 X95.52 Y129.15 E62.7391
G1 X94.727 Y128.717 E62.76164
G1 X93.976 Y128.216 E62.78416
G1 X93.272 Y127.65 E62.80669
G1 X92.621 Y127.024 E62.82922
G1 X92.028 Y126.343 E62.85175
G1 X91.498 Y125.612 E62.87427
G1 X91.034 Y124.837 E62.8968
G1 X90.64 Y124.024 E62.91934
G1 X90.32 Y123.18 E62.94185
G1 X90.076 Y122.31 E62.96439
G1 X89.91 Y121.422 E62.98693
G1 X89.813 Y120.267 E63.01584
G1 X89.8 Y119.658 E63.03104
G1 X89.801 Y100.536 E63.50804
G1 X89.81 Y99.871 E63.52463
G1 X89.862 Y98.969 E63.54717
G1 X89.994 Y98.076 E63.56968
G1 X90.204 Y97.198 E63.5922
G1 X90.491 Y96.341 E63.61475
G1 X90.853 Y95.514 E63.63727
G1 X91.286 Y94.722 E63.65978
G1 X91.788 Y93.971 E63.68232
G1 X92.355 Y93.267 E63.70487
G1 X92.981 Y92.617 E63.72738
G1 F2700 E53.72738
;MESH:xyzCalibration_cube.stl
G0 F7500 X100.424 Y99.335
G0 X100.424 Y100.424
G0 X101.572 Y118.428
G0 X110 Y118.6
;TYPE:WALL-INNER
G1 F2700 E63.72738
G1 F1800 X118.6 Y118.6 E63.9419
G1 X118.6 Y101.4 E64.37096
G1 X101.4 Y101.4 E64.80002
G1 X101.4 Y118.6 E65.22907
G1 X110 Y118.6 E65.4436
G0 F7500 X110 Y119
G1 F1800 X119 Y119 E65.66811
