;FLAVOR:Marlin
;TIME:2458
;Filament used: 2.01074m
;Layer height: 0.24
;MINX:96
;MINY:96
;MINZ:0.25
;MAXX:124
;MAXY:124
;MAXZ:20.13
;TARGET_MACHINE.NAME:Creality Ender-3
;Generated with Cura_SteamEngine 5.10.0
M140 S75
M105
M190 S75
M104 S228
M105
M109 S228
; Ender 3 Custom Start G-code
G92 E0 ; Reset Extruder
G28 ; Home all axes
G1 Z2.0 F3000 ; Move Z Axis up little to prevent scratching of Heat Bed
G1 X0.1 Y20 Z0.3 F5000.0 ; Move to start position
G1 X0.1 Y200.0 Z0.3 F1500.0 E15 ; Draw the first line
G1 X0.4 Y200.0 Z0.3 F5000.0 ; Move to side a little
G1 X0.4 Y20 Z0.3 F1500.0 E30 ; Draw the second line
G92 E0 ; Reset Extruder
G1 Z2.0 F3000 ; Move Z Axis up little to prevent scratching of Heat Bed
G1 X5 Y20 Z0.3 F5000.0 ; Move over to prevent blob squish
M82 ;absolute extrusion mode
G92 E0
G92 E0
G1 F2700 E-10
;LAYER_COUNT:83
;LAYER:0
M107
G1 F300 Z0.45
G0 F6000 X97.284 Y97.084 Z0.45
;TYPE:SKIRT
G1 F300 Z0.25
G1 F2700 E0
G1 F900 X97.779 Y96.691 E0.02628
G1 X98.325 Y96.382 E0.05236
G1 X98.857 Y96.18 E0.07602
G1 X99.517 Y96.04 E0.10407
G1 X99.897 Y96.01 E0.11992
G1 X100.24 Y96.001 E0.13418
G1 X119.351 Y96 E0.92873
G1 X120.083 Y96.012 E0.95916
G1 X120.743 Y96.083 E0.98676
G1 X121.293 Y96.229 E1.01042
G1 X121.867 Y96.479 E1.03645
G1 X122.348 Y96.781 E1.06006
G1 X122.92 Y97.289 E1.09187
G1 X123.31 Y97.782 E1.118
G1 X123.62 Y98.333 E1.14429
G1 X123.838 Y98.924 E1.17047
G1 X123.961 Y99.522 E1.19586
G1 X123.99 Y99.898 E1.21154
G1 X123.999 Y100.24 E1.22576
G1 X124 Y119.314 E2.01876
G1 X123.989 Y120.075 E2.05041
G1 X123.92 Y120.736 E2.07804
G1 X123.753 Y121.345 E2.10429
G1 X123.493 Y121.919 E2.13049
G1 X123.145 Y122.448 E2.15681
G1 X122.719 Y122.914 E2.18306
G1 X122.225 Y123.307 E2.20931
G1 X121.674 Y123.618 E2.23561
G1 X121.084 Y123.836 E2.26176
G1 X120.487 Y123.96 E2.28711
G1 X120.103 Y123.99 E2.30313
G1 X119.765 Y123.998 E2.31718
G1 X100.656 Y124 E3.11164
G1 X99.924 Y123.989 E3.14208
G1 X99.262 Y123.919 E3.16976
G1 X98.653 Y123.752 E3.19601
G1 X98.078 Y123.491 E3.22226
G1 X97.551 Y123.144 E3.2485
G1 X97.085 Y122.717 E3.27477
G1 X96.692 Y122.222 E3.30105
G1 X96.382 Y121.673 E3.32726
G1 X96.163 Y121.081 E3.35351
G1 X96.04 Y120.485 E3.37881
G1 X96.01 Y120.098 E3.39494
G1 X96.001 Y119.744 E3.40967
G1 X96 Y100.621 E4.20471
G1 X96.011 Y99.921 E4.23382
G1 X96.082 Y99.259 E4.2615
G1 X96.249 Y98.652 E4.28767
G1 X96.509 Y98.077 E4.31391
G1 X96.858 Y97.549 E4.34022
G1 X97.284 Y97.084 E4.36644
G0 F6000 X97.535 Y97.395
G1 F900 X97.978 Y97.038 E4.39009
G1 X98.471 Y96.755 E4.41373
G1 X98.942 Y96.571 E4.43475
G1 X99.549 Y96.439 E4.46057
G1 X99.908 Y96.41 E4.47555
G1 X100.24 Y96.401 E4.48936
G1 X119.345 Y96.4 E5.28365
G1 X120.043 Y96.41 E5.31267
G1 X120.64 Y96.47 E5.33762
G1 X121.19 Y96.616 E5.36128
G1 X121.654 Y96.818 E5.38232
G1 X122.135 Y97.12 E5.40593
G1 X122.608 Y97.539 E5.4322
G1 X122.963 Y97.981 E5.45577
G1 X123.246 Y98.475 E5.47944
G1 X123.447 Y99.006 E5.50304
G1 X123.562 Y99.553 E5.52628
G1 X123.59 Y99.909 E5.54113
G1 X123.599 Y100.24 E5.5549
G1 X123.6 Y119.309 E6.34769
G1 X123.591 Y120.036 E6.37792
G1 X123.533 Y120.633 E6.40286
G1 X123.387 Y121.183 E6.42652
G1 X123.157 Y121.702 E6.45012
G1 X122.848 Y122.18 E6.47378
G1 X122.467 Y122.603 E6.49745
G1 X122.026 Y122.96 E6.52104
G1 X121.532 Y123.244 E6.54473
G1 X121.001 Y123.445 E6.56833
G1 X120.455 Y123.561 E6.59154
G1 X120.092 Y123.59 E6.60668
G1 X119.76 Y123.599 E6.62049
G1 X100.661 Y123.6 E7.41453
G1 X99.963 Y123.591 E7.44355
G1 X99.365 Y123.532 E7.46854
G1 X98.815 Y123.386 E7.49219
G1 X98.295 Y123.155 E7.51585
G1 X97.819 Y122.847 E7.53942
G1 X97.396 Y122.466 E7.56309
G1 X97.039 Y122.023 E7.58674
G1 X96.756 Y121.531 E7.61034
G1 X96.554 Y120.999 E7.634
G1 X96.439 Y120.453 E7.6572
G1 X96.41 Y120.088 E7.67242
G1 X96.401 Y119.744 E7.68673
G1 X96.4 Y100.626 E8.48156
G1 X96.409 Y99.961 E8.50921
G1 X96.469 Y99.362 E8.53424
G1 X96.615 Y98.814 E8.55782
G1 X96.845 Y98.295 E8.58142
G1 X97.155 Y97.817 E8.60511
G1 X97.535 Y97.395 E8.62872
G0 F6000 X97.789 Y97.704
G1 F900 X98.18 Y97.383 E8.64975
G1 X98.617 Y97.128 E8.67078
G1 X99.088 Y96.944 E8.69181
G1 X99.582 Y96.838 E8.71281
G1 X99.919 Y96.81 E8.72687
G1 X100.24 Y96.801 E8.74022
G1 X119.339 Y96.8 E9.53427
G1 X120.037 Y96.81 E9.56329
G1 X120.54 Y96.857 E9.58429
G1 X121.03 Y96.983 E9.60533
G1 X121.494 Y97.185 E9.62637
G1 X121.92 Y97.457 E9.64738
G1 X122.298 Y97.792 E9.66838
G1 X122.618 Y98.183 E9.68938
G1 X122.873 Y98.62 E9.71042
G1 X123.056 Y99.091 E9.73143
G1 X123.163 Y99.585 E9.75244
G1 X123.19 Y99.92 E9.76642
G1 X123.199 Y100.24 E9.77972
G1 X123.2 Y119.304 E10.57231
G1 X123.191 Y120.031 E10.60254
G1 X123.145 Y120.534 E10.62354
G1 X123.02 Y121.024 E10.64457
G1 X122.819 Y121.488 E10.66559
G1 X122.548 Y121.915 E10.68661
G1 X122.213 Y122.294 E10.70764
G1 X121.823 Y122.615 E10.72864
G1 X121.387 Y122.871 E10.74967
G1 X120.916 Y123.054 E10.77067
G1 X120.422 Y123.162 E10.7917
G1 X120.081 Y123.19 E10.80592
G1 X119.76 Y123.199 E10.81927
G1 X100.666 Y123.2 E11.61311
G1 X99.968 Y123.191 E11.64213
G1 X99.464 Y123.144 E11.66317
G1 X98.974 Y123.019 E11.6842
G1 X98.51 Y122.818 E11.70522
G1 X98.084 Y122.547 E11.72621
G1 X97.705 Y122.212 E11.74724
G1 X97.384 Y121.821 E11.76828
G1 X97.129 Y121.385 E11.78928
G1 X96.945 Y120.914 E11.8103
G1 X96.838 Y120.42 E11.83131
G1 X96.81 Y120.077 E11.84562
G1 X96.801 Y119.744 E11.85947
G1 X96.8 Y100.631 E12.6541
G1 X96.809 Y99.966 E12.68175
G1 X96.856 Y99.462 E12.70279
G1 X96.982 Y98.973 E12.72379
G1 X97.183 Y98.509 E12.74481
G1 X97.454 Y98.082 E12.76583
G1 X97.789 Y97.704 E12.78683
G1 F2700 E2.78683
G1 F300 Z0.45
;MESH:xyzCalibration_cube.stl
G0 F6000 X110 Y119 Z0.45
;TYPE:WALL-INNER
G1 F300 Z0.25
G1 F2700 E12.78683
G1 F2100 X119 Y119 E13.16101
G1 X119 Y101 E13.90936
G1 X101 Y101 E14.65772
G1 X101 Y119 E15.40607
G1 X110 Y119 E15.78025
G0 F6000 X110 Y119.4
G1 F2100 X119.4 Y119.4 E16.17105
G1 X119.4 Y100.6 E16.95267
G1 X100.6 Y100.6 E17.73428
G1 X100.6 Y119.4 E18.51589
G1 X110 Y119.4 E18.9067
G0 F6000 X110 Y119.8
;TYPE:WALL-OUTER
G1 F2100 X119.8 Y119.8 E19.31413
G1 X119.8 Y100.2 E20.12901
G1 X100.2 Y100.2 E20.94388
G1 X100.2 Y119.8 E21.75875
G1 X110 Y119.8 E22.16619
G0 F6000 X110 Y118.64
;TYPE:SKIN
G1 F2100 X101.36 Y118.64 E22.5254
G1 X101.36 Y101.36 E23.24382
G1 X118.64 Y101.36 E23.96224
G1 X118.64 Y118.64 E24.68066
G1 X110 Y118.64 E25.03987
G1 F2700 E15.03987
G1 F300 Z0.45
G0 F6000 X101.56 Y117.965 Z0.45
G1 F300 Z0.25
G1 F2700 E25.03987
G1 F2100 X102.035 Y118.44 E25.0678
G0 F6000 X102.6 Y118.44
G1 F2100 X101.56 Y117.399 E25.12897
G0 F6000 X101.56 Y116.833
G1 F2100 X103.166 Y118.44 E25.22343
G0 F6000 X103.732 Y118.44
G1 F2100 X101.56 Y116.267 E25.35116
G0 F6000 X101.56 Y115.702
G1 F2100 X104.298 Y118.44 E25.51215
G0 F6000 X104.863 Y118.44
G1 F2100 X101.56 Y115.136 E25.70638
G0 F6000 X101.56 Y114.57
G1 F2100 X105.429 Y118.44 E25.93389
G0 F6000 X105.995 Y118.44
G1 F2100 X101.56 Y114.005 E26.19465
G0 F6000 X101.56 Y113.439
G1 F2100 X106.56 Y118.44 E26.48866
G0 F6000 X107.126 Y118.44
G1 F2100 X101.56 Y112.873 E26.81595
G0 F6000 X101.56 Y112.308
G1 F2100 X107.692 Y118.44 E27.17649
G0 F6000 X108.257 Y118.44
G1 F2100 X101.56 Y111.742 E27.57028
G0 F6000 X101.56 Y111.176
G1 F2100 X108.823 Y118.44 E27.99734
G0 F6000 X109.389 Y118.44
G1 F2100 X101.56 Y110.611 E28.45766
G0 F6000 X101.56 Y110.045
G1 F2100 X109.954 Y118.44 E28.95122
G0 F6000 X110.52 Y118.44
G1 F2100 X101.56 Y109.479 E29.47807
G0 F6000 X101.56 Y108.914
G1 F2100 X111.086 Y118.44 E30.03816
G0 F6000 X111.651 Y118.44
G1 F2100 X101.56 Y108.348 E30.6315
G0 F6000 X101.56 Y107.782
G1 F2100 X112.217 Y118.44 E31.25812
G0 F6000 X112.783 Y118.44
G1 F2100 X101.56 Y107.216 E31.91802
G0 F6000 X101.56 Y106.651
G1 F2100 X113.349 Y118.44 E32.61117
G0 F6000 X113.914 Y118.44
G1 F2100 X101.56 Y106.085 E33.33756
G0 F6000 X101.56 Y105.519
G1 F2100 X114.48 Y118.44 E34.09724
G0 F6000 X115.046 Y118.44
G1 F2100 X101.56 Y104.954 E34.89017
G0 F6000 X101.56 Y104.388
G1 F2100 X115.611 Y118.44 E35.71634
G0 F6000 X116.177 Y118.44
G1 F2100 X101.56 Y103.822 E36.57579
G0 F6000 X101.56 Y103.257
G1 F2100 X116.743 Y118.44 E37.4685
G0 F6000 X117.308 Y118.44
G1 F2100 X101.56 Y102.691 E38.39445
G0 F6000 X101.56 Y102.125
G1 F2100 X117.874 Y118.44 E39.35368
G0 F6000 X118.44 Y118.44
G1 F2100 X101.56 Y101.56 E40.34616
G0 F6000 X102.126 Y101.56
G1 F2100 X118.44 Y117.874 E41.30536
G0 F6000 X118.44 Y117.308
G1 F2100 X102.692 Y101.56 E42.23128
G0 F6000 X103.257 Y101.56
G1 F2100 X118.44 Y116.743 E43.12398
G0 F6000 X118.44 Y116.177
G1 F2100 X103.823 Y101.56 E43.9834
G0 F6000 X104.389 Y101.56
G1 F2100 X118.44 Y115.611 E44.80955
G0 F6000 X118.44 Y115.046
G1 F2100 X104.954 Y101.56 E45.60247
G0 F6000 X105.52 Y101.56
G1 F2100 X118.44 Y114.48 E46.36212
G0 F6000 X118.44 Y113.914
G1 F2100 X106.086 Y101.56 E47.08849
G0 F6000 X106.652 Y101.56
G1 F2100 X118.44 Y113.349 E47.78161
G0 F6000 X118.44 Y112.783
G1 F2100 X107.217 Y101.56 E48.44148
G0 F6000 X107.783 Y101.56
G1 F2100 X118.44 Y112.217 E49.06807
G0 F6000 X118.44 Y111.651
G1 F2100 X108.349 Y101.56 E49.66138
G0 F6000 X108.914 Y101.56
G1 F2100 X118.44 Y111.086 E50.22147
G0 F6000 X118.44 Y110.52
G1 F2100 X109.48 Y101.56 E50.74829
G0 F6000 X110.046 Y101.56
G1 F2100 X118.44 Y109.954 E51.24182
G0 F6000 X118.44 Y109.389
G1 F2100 X110.611 Y101.56 E51.70214
G0 F6000 X111.177 Y101.56
G1 F2100 X118.44 Y108.823 E52.12917
G0 F6000 X118.44 Y108.257
G1 F2100 X111.743 Y101.56 E52.52293
G0 F6000 X112.308 Y101.56
G1 F2100 X118.44 Y107.692 E52.88347
G0 F6000 X118.44 Y107.126
G1 F2100 X112.874 Y101.56 E53.21073
G0 F6000 X113.44 Y101.56
G1 F2100 X118.44 Y106.56 E53.50471
G0 F6000 X118.44 Y105.995
G1 F2100 X114.005 Y101.56 E53.76547
G0 F6000 X114.571 Y101.56
M104 S225
G1 F2100 X118.44 Y105.429 E53.99295
G0 F6000 X118.44 Y104.863
G1 F2100 X115.137 Y101.56 E54.18716
G0 F6000 X115.702 Y101.56
G1 F2100 X118.44 Y104.298 E54.34814
G0 F6000 X118.44 Y103.732
G1 F2100 X116.268 Y101.56 E54.47585
G0 F6000 X116.834 Y101.56
G1 F2100 X118.44 Y103.166 E54.57027
G0 F6000 X118.44 Y102.6
G1 F2100 X117.4 Y101.56 E54.63142
G0 F6000 X117.965 Y101.56
G1 F2100 X118.44 Y102.035 E54.65935
G1 F2700 E44.65935
G1 F300 Z0.45
;MESH:NONMESH
G0 F6000 X97.789 Y97.704 Z0.45
;TIME_ELAPSED:62.571847
;LAYER:1
M140 S70
M106 S85
G0 F8250 X97.789 Y97.704 Z0.69
;TYPE:SKIRT
G1 F300 Z0.49
G1 F2700 E54.65935
G1 F900 X98.18 Y97.383 E54.67954
G1 X98.617 Y97.128 E54.69973
G1 X99.088 Y96.944 E54.71992
G1 X99.582 Y96.838 E54.74008
G1 X99.919 Y96.81 E54.75358
G1 X100.24 Y96.801 E54.76639
G1 X119.339 Y96.8 E55.52868
G1 X120.037 Y96.81 E55.55654
G1 X120.54 Y96.857 E55.5767
G1 X121.03 Y96.983 E55.59689
G1 X121.494 Y97.185 E55.61709
G1 X121.92 Y97.457 E55.63727
G1 X122.298 Y97.792 E55.65742
G1 X122.618 Y98.183 E55.67759
G1 X122.873 Y98.62 E55.69778
G1 X123.056 Y99.091 E55.71795
G1 X123.163 Y99.585 E55.73813
G1 X123.19 Y99.92 E55.75154
G1 X123.199 Y100.24 E55.76432
G1 X123.2 Y119.304 E56.5252
G1 X123.191 Y120.031 E56.55422
G1 X123.145 Y120.534 E56.57438
G1 X123.02 Y121.024 E56.59456
G1 X122.819 Y121.488 E56.61475
G1 X122.548 Y121.915 E56.63493
G1 X122.213 Y122.294 E56.65512
G1 X121.823 Y122.615 E56.67528
G1 X121.387 Y122.871 E56.69546
G1 X120.916 Y123.054 E56.71563
G1 X120.422 Y123.162 E56.73581
G1 X120.081 Y123.19 E56.74946
G1 X119.76 Y123.199 E56.76228
G1 X100.666 Y123.2 E57.52436
G1 X99.968 Y123.191 E57.55223
G1 X99.464 Y123.144 E57.57243
G1 X98.974 Y123.019 E57.59261
G1 X98.51 Y122.818 E57.61279
G1 X98.084 Y122.547 E57.63295
G1 X97.705 Y122.212 E57.65313
G1 X97.384 Y121.821 E57.67333
G1 X97.129 Y121.385 E57.69348
G1 X96.945 Y120.914 E57.71367
G1 X96.838 Y120.42 E57.73384
G1 X96.81 Y120.077 E57.74758
G1 X96.801 Y119.744 E57.76087
G1 X96.8 Y100.631 E58.52371
G1 X96.809 Y99.966 E58.55026
G1 X96.856 Y99.462 E58.57046
G1 X96.982 Y98.973 E58.59061
G1 X97.183 Y98.509 E58.6108
G1 X97.454 Y98.082 E58.63098
G1 X97.789 Y97.704 E58.65114
G1 F2700 E48.65114
G1 F300 Z0.69
;MESH:xyzCalibration_cube.stl
G0 F8250 X110 Y119 Z0.69
;TYPE:WALL-INNER
G1 F300 Z0.49
G1 F2700 E58.65114
G1 F2100 X119 Y119 E59.01035
G1 X119 Y101 E59.72877
G1 X101 Y101 E60.44719
G1 X101 Y119 E61.16561
G1 X110 Y119 E61.52482
G0 F8250 X110 Y119.4
G1 F2100 X119.4 Y119.4 E61.89999
G1 X119.4 Y100.6 E62.65034
G1 X100.6 Y100.6 E63.40069
G1 X100.6 Y119.4 E64.15104
G1 X110 Y119.4 E64.52621
G0 F8250 X110 Y119.8
;TYPE:WALL-OUTER
G1 F2100 X119.8 Y119.8 E64.91735
G1 X119.8 Y100.2 E65.69963
G1 X100.2 Y100.2 E66.48191
G1 X100.2 Y119.8 E67.26419
G1 X110 Y119.8 E67.65532
G0 F8250 X110 Y118.64
;TYPE:SKIN
G1 F2100 X101.36 Y118.64 E68.00017
G1 X101.36 Y101.36 E68.68985
G1 X118.64 Y101.36 E69.37953
G1 X118.64 Y118.64 E70.06921
G1 X110 Y118.64 E70.41405
G1 F2700 E60.41405
G1 F300 Z0.69
G0 F8250 X118.017 Y118.44 Z0.69
G1 F300 Z0.49
G1 F2700 E70.41405
G1 F2100 X118.44 Y118.017 E70.43793
G0 F8250 X118.44 Y117.451
G1 F2100 X117.451 Y118.44 E70.49375
G0 F8250 X116.885 Y118.44
G1 F2100 X118.44 Y116.885 E70.58152
G0 F8250 X118.44 Y116.32
G1 F2100 X116.32 Y118.44 E70.70119
G0 F8250 X115.754 Y118.44
G1 F2100 X118.44 Y115.754 E70.85279
G0 F8250 X118.44 Y115.188
G1 F2100 X115.188 Y118.44 E71.03635
G0 F8250 X114.623 Y118.44
G1 F2100 X118.44 Y114.623 E71.2518
G0 F8250 X118.44 Y114.057
G1 F2100 X114.057 Y118.44 E71.4992
G0 F8250 X113.491 Y118.44
G1 F2100 X118.44 Y113.491 E71.77854
G0 F8250 X118.44 Y112.926
G1 F2100 X112.926 Y118.44 E72.08977
G0 F8250 X112.36 Y118.44
G1 F2100 X118.44 Y112.36 E72.43295
G0 F8250 X118.44 Y111.794
G1 F2100 X111.794 Y118.44 E72.80808
G0 F8250 X111.229 Y118.44
G1 F2100 X118.44 Y111.229 E73.2151
G0 F8250 X118.44 Y110.663
G1 F2100 X110.663 Y118.44 E73.65407
G0 F8250 X110.097 Y118.44
G1 F2100 X118.44 Y110.097 E74.12498
G0 F8250 X118.44 Y109.532
G1 F2100 X109.532 Y118.44 E74.62779
G0 F8250 X108.966 Y118.44
G1 F2100 X118.44 Y108.966 E75.16254
G0 F8250 X118.44 Y108.4
G1 F2100 X108.4 Y118.44 E75.72925
G0 F8250 X107.834 Y118.44
G1 F2100 X118.44 Y107.834 E76.32789
G0 F8250 X118.44 Y107.269
G1 F2100 X107.269 Y118.44 E76.95843
G0 F8250 X106.703 Y118.44
G1 F2100 X118.44 Y106.703 E77.62092
G0 F8250 X118.44 Y106.137
G1 F2100 X106.137 Y118.44 E78.31535
G0 F8250 X105.572 Y118.44
G1 F2100 X118.44 Y105.572 E79.04168
G0 F8250 X118.44 Y105.006
G1 F2100 X105.006 Y118.44 E79.79995
G0 F8250 X104.44 Y118.44
G1 F2100 X118.44 Y104.44 E80.59017
G0 F8250 X118.44 Y103.875
G1 F2100 X103.875 Y118.44 E81.41229
G0 F8250 X103.309 Y118.44
G1 F2100 X118.44 Y103.309 E82.26634
G0 F8250 X118.44 Y102.743
G1 F2100 X102.743 Y118.44 E83.15235
G0 F8250 X102.178 Y118.44
G1 F2100 X118.44 Y102.178 E84.07025
G0 F8250 X118.44 Y101.612
G1 F2100 X101.612 Y118.44 E85.02009
G0 F8250 X101.56 Y117.926
G1 F2100 X117.926 Y101.56 E85.94386
G0 F8250 X117.361 Y101.56
G1 F2100 X101.56 Y117.36 E86.83571
G0 F8250 X101.56 Y116.794
G1 F2100 X116.795 Y101.56 E87.69561
G0 F8250 X116.229 Y101.56
G1 F2100 X101.56 Y116.229 E88.52359
G0 F8250 X101.56 Y115.663
G1 F2100 X115.664 Y101.56 E89.31965
G0 F8250 X115.098 Y101.56
G1 F2100 X101.56 Y115.097 E90.08377
G0 F8250 X101.56 Y114.531
G1 F2100 X114.532 Y101.56 E90.81594
G0 F8250 X113.967 Y101.56
G1 F2100 X101.56 Y113.966 E91.51621
G0 F8250 X101.56 Y113.4
G1 F2100 X113.401 Y101.56 E92.18454
G0 F8250 X112.835 Y101.56
G1 F2100 X101.56 Y112.834 E92.82092
G0 F8250 X101.56 Y112.269
G1 F2100 X112.269 Y101.56 E93.42539
G0 F8250 X111.704 Y101.56
G1 F2100 X101.56 Y111.703 E93.99793
G0 F8250 X101.56 Y111.137
G1 F2100 X111.138 Y101.56 E94.53853
G0 F8250 X110.572 Y101.56
G1 F2100 X101.56 Y110.572 E95.0472
G0 F8250 X101.56 Y110.006
G1 F2100 X110.007 Y101.56 E95.52396
G0 F8250 X109.441 Y101.56
G1 F2100 X101.56 Y109.44 E95.96877
G0 F8250 X101.56 Y108.875
