;FLAVOR:Marlin
;TIME:2910
;Filament used: 1.759m
;Layer height: 0.2
;MINX:96
;MINY:96
;MINZ:0.3
;MAXX:124
;MAXY:124
;MAXZ:20.1
;TARGET_MACHINE.NAME:Creality Ender-3
;Generated with Cura_SteamEngine 5.10.0
M140 S75
M105
M190 S75
M104 S235
M105
M109 S235
; Ender 3 Custom Start G-code
G92 E0 ; Reset Extruder
G28 ; Home all axes
G1 Z2.0 F3000 ; Move Z Axis up little to prevent scratching of Heat Bed
G1 X0.1 Y20 Z0.3 F5000.0 ; Move to start position
G1 X0.1 Y200.0 Z0.3 F1500.0 E15 ; Draw the first line
G1 X0.4 Y200.0 Z0.3 F5000.0 ; Move to side a little
G1 X0.4 Y20 Z0.3 F1500.0 E30 ; Draw the second line
G92 E0 ; Reset Extruder
G1 Z2.0 F3000 ; Move Z Axis up little to prevent scratching of Heat Bed
G1 X5 Y20 Z0.3 F5000.0 ; Move over to prevent blob squish
M82 ;absolute extrusion mode
G92 E0
G92 E0
G1 F2700 E-10
;LAYER_COUNT:99
;LAYER:0
M107
G1 F300 Z0.5
G0 F6000 X97.284 Y97.084 Z0.5
;TYPE:SKIRT
G1 F300 Z0.3
G1 F2700 E0
G1 F900 X97.779 Y96.691 E0.03153
G1 X98.325 Y96.382 E0.06283
G1 X98.857 Y96.18 E0.09122
G1 X99.517 Y96.04 E0.12488
G1 X99.897 Y96.01 E0.1439
G1 X100.24 Y96.001 E0.16102
G1 X119.351 Y96 E1.11447
G1 X120.083 Y96.012 E1.15099
G1 X120.743 Y96.083 E1.18411
G1 X121.293 Y96.229 E1.2125
G1 X121.867 Y96.479 E1.24374
G1 X122.348 Y96.781 E1.27207
G1 X122.92 Y97.289 E1.31024
G1 X123.31 Y97.782 E1.3416
G1 X123.62 Y98.333 E1.37314
G1 X123.838 Y98.924 E1.40457
G1 X123.961 Y99.522 E1.43503
G1 X123.99 Y99.898 E1.45384
G1 X123.999 Y100.24 E1.47091
G1 X124 Y119.314 E2.42252
G1 X123.989 Y120.075 E2.46049
G1 X123.92 Y120.736 E2.49364
G1 X123.753 Y121.345 E2.52515
G1 X123.493 Y121.919 E2.55659
G1 X123.145 Y122.448 E2.58818
G1 X122.719 Y122.914 E2.61968
G1 X122.225 Y123.307 E2.65117
G1 X121.674 Y123.618 E2.68274
G1 X121.084 Y123.836 E2.71412
G1 X120.487 Y123.96 E2.74454
G1 X120.103 Y123.99 E2.76375
G1 X119.765 Y123.998 E2.78062
G1 X100.656 Y124 E3.73397
G1 X99.924 Y123.989 E3.7705
G1 X99.262 Y123.919 E3.80371
G1 X98.653 Y123.752 E3.83521
G1 X98.078 Y123.491 E3.86672
G1 X97.551 Y123.144 E3.8982
G1 X97.085 Y122.717 E3.92973
G1 X96.692 Y122.222 E3.96126
G1 X96.382 Y121.673 E3.99272
G1 X96.163 Y121.081 E4.02421
G1 X96.04 Y120.485 E4.05457
G1 X96.01 Y120.098 E4.07393
G1 X96.001 Y119.744 E4.0916
G1 X96 Y100.621 E5.04565
G1 X96.011 Y99.921 E5.08058
G1 X96.082 Y99.259 E5.11379
G1 X96.249 Y98.652 E5.1452
G1 X96.509 Y98.077 E5.17669
G1 X96.858 Y97.549 E5.20826
G1 X97.284 Y97.084 E5.23973
G0 F6000 X97.535 Y97.395
G1 F900 X97.978 Y97.038 E5.26811
G1 X98.471 Y96.755 E5.29647
G1 X98.942 Y96.571 E5.3217
G1 X99.549 Y96.439 E5.35269
G1 X99.908 Y96.41 E5.37066
G1 X100.24 Y96.401 E5.38723
G1 X119.345 Y96.4 E6.34038
G1 X120.043 Y96.41 E6.37521
G1 X120.64 Y96.47 E6.40514
G1 X121.19 Y96.616 E6.43353
G1 X121.654 Y96.818 E6.45878
G1 X122.135 Y97.12 E6.48711
G1 X122.608 Y97.539 E6.51864
G1 X122.963 Y97.981 E6.54692
G1 X123.246 Y98.475 E6.57533
G1 X123.447 Y99.006 E6.60365
G1 X123.562 Y99.553 E6.63154
G1 X123.59 Y99.909 E6.64935
G1 X123.599 Y100.24 E6.66587
G1 X123.6 Y119.309 E7.61723
G1 X123.591 Y120.036 E7.6535
G1 X123.533 Y120.633 E7.68343
G1 X123.387 Y121.183 E7.71182
G1 X123.157 Y121.702 E7.74014
G1 X122.848 Y122.18 E7.76854
G1 X122.467 Y122.603 E7.79694
G1 X122.026 Y122.96 E7.82525
G1 X121.532 Y123.244 E7.85367
G1 X121.001 Y123.445 E7.882
G1 X120.455 Y123.561 E7.90985
G1 X120.092 Y123.59 E7.92802
G1 X119.76 Y123.599 E7.94459
G1 X100.661 Y123.6 E8.89744
G1 X99.963 Y123.591 E8.93226
G1 X99.365 Y123.532 E8.96224
G1 X98.815 Y123.386 E8.99063
G1 X98.295 Y123.155 E9.01902
G1 X97.819 Y122.847 E9.04731
G1 X97.396 Y122.466 E9.07571
G1 X97.039 Y122.023 E9.10409
G1 X96.756 Y121.531 E9.13241
G1 X96.554 Y120.999 E9.1608
G1 X96.439 Y120.453 E9.18864
G1 X96.41 Y120.088 E9.20691
G1 X96.401 Y119.744 E9.22407
G1 X96.4 Y100.626 E10.17788
G1 X96.409 Y99.961 E10.21106
G1 X96.469 Y99.362 E10.24109
G1 X96.615 Y98.814 E10.26938
G1 X96.845 Y98.295 E10.2977
G1 X97.155 Y97.817 E10.32613
G1 X97.535 Y97.395 E10.35446
G0 F6000 X97.789 Y97.704
G1 F900 X98.18 Y97.383 E10.3797
G1 X98.617 Y97.128 E10.40494
G1 X99.088 Y96.944 E10.43017
G1 X99.582 Y96.838 E10.45537
G1 X99.919 Y96.81 E10.47225
G1 X100.24 Y96.801 E10.48827
G1 X119.339 Y96.8 E11.44112
G1 X120.037 Y96.81 E11.47595
G1 X120.54 Y96.857 E11.50115
G1 X121.03 Y96.983 E11.52639
G1 X121.494 Y97.185 E11.55164
G1 X121.92 Y97.457 E11.57686
G1 X122.298 Y97.792 E11.60205
G1 X122.618 Y98.183 E11.62726
G1 X122.873 Y98.62 E11.6525
G1 X123.056 Y99.091 E11.67771
G1 X123.163 Y99.585 E11.70293
G1 X123.19 Y99.92 E11.7197
G1 X123.199 Y100.24 E11.73567
G1 X123.2 Y119.304 E12.68678
G1 X123.191 Y120.031 E12.72305
G1 X123.145 Y120.534 E12.74825
G1 X123.02 Y121.024 E12.77348
G1 X122.819 Y121.488 E12.79871
G1 X122.548 Y121.915 E12.82394
G1 X122.213 Y122.294 E12.84917
G1 X121.823 Y122.615 E12.87437
G1 X121.387 Y122.871 E12.8996
G1 X120.916 Y123.054 E12.92481
G1 X120.422 Y123.162 E12.95004
G1 X120.081 Y123.19 E12.96711
G1 X119.76 Y123.199 E12.98313
G1 X100.666 Y123.2 E13.93573
G1 X99.968 Y123.191 E13.97056
G1 X99.464 Y123.144 E13.99581
G1 X98.974 Y123.019 E14.02104
G1 X98.51 Y122.818 E14.04627
G1 X98.084 Y122.547 E14.07146
G1 X97.705 Y122.212 E14.09669
G1 X97.384 Y121.821 E14.12193
G1 X97.129 Y121.385 E14.14713
G1 X96.945 Y120.914 E14.17236
G1 X96.838 Y120.42 E14.19758
G1 X96.81 Y120.077 E14.21474
G1 X96.801 Y119.744 E14.23136
G1 X96.8 Y100.631 E15.18492
G1 X96.809 Y99.966 E15.2181
G1 X96.856 Y99.462 E15.24335
G1 X96.982 Y98.973 E15.26854
G1 X97.183 Y98.509 E15.29377
G1 X97.454 Y98.082 E15.319
G1 X97.789 Y97.704 E15.3442
G1 F2700 E5.3442
G1 F300 Z0.5
;MESH:xyzCalibration_cube.stl
G0 F6000 X110 Y119 Z0.5
;TYPE:WALL-INNER
G1 F300 Z0.3
G1 F2700 E15.3442
G1 F1500 X119 Y119 E15.79321
G1 X119 Y101 E16.69124
G1 X101 Y101 E17.58926
G1 X101 Y119 E18.48728
G1 X110 Y119 E18.93629
G0 F6000 X110 Y119.4
G1 F1500 X119.4 Y119.4 E19.40526
G1 X119.4 Y100.6 E20.3432
G1 X100.6 Y100.6 E21.28113
G1 X100.6 Y119.4 E22.21907
G1 X110 Y119.4 E22.68804
G0 F6000 X110 Y119.8
;TYPE:WALL-OUTER
G1 F1500 X119.8 Y119.8 E23.17696
G1 X119.8 Y100.2 E24.15481
G1 X100.2 Y100.2 E25.13266
G1 X100.2 Y119.8 E26.11051
G1 X110 Y119.8 E26.59943
G0 F6000 X110 Y118.64
;TYPE:SKIN
G1 F1500 X101.36 Y118.64 E27.03048
G1 X101.36 Y101.36 E27.89258
G1 X118.64 Y101.36 E28.75469
G1 X118.64 Y118.64 E29.61679
G1 X110 Y118.64 E30.04784
G1 F2700 E20.04784
G1 F300 Z0.5
G0 F6000 X101.56 Y117.965 Z0.5
G1 F300 Z0.3
G1 F2700 E30.04784
G1 F1500 X102.035 Y118.44 E30.08135
G0 F6000 X102.6 Y118.44
G1 F1500 X101.56 Y117.399 E30.15477
G0 F6000 X101.56 Y116.833
G1 F1500 X103.166 Y118.44 E30.26811
G0 F6000 X103.732 Y118.44
G1 F1500 X101.56 Y116.267 E30.4214
G0 F6000 X101.56 Y115.702
G1 F1500 X104.298 Y118.44 E30.61458
G0 F6000 X104.863 Y118.44
G1 F1500 X101.56 Y115.136 E30.84766
G0 F6000 X101.56 Y114.57
G1 F1500 X105.429 Y118.44 E31.12067
G0 F6000 X105.995 Y118.44
G1 F1500 X101.56 Y114.005 E31.43358
G0 F6000 X101.56 Y113.439
G1 F1500 X106.56 Y118.44 E31.7864
G0 F6000 X107.126 Y118.44
G1 F1500 X101.56 Y112.873 E32.17914
G0 F6000 X101.56 Y112.308
G1 F1500 X107.692 Y118.44 E32.61179
G0 F6000 X108.257 Y118.44
G1 F1500 X101.56 Y111.742 E33.08433
G0 F6000 X101.56 Y111.176
G1 F1500 X108.823 Y118.44 E33.59681
G0 F6000 X109.389 Y118.44
G1 F1500 X101.56 Y110.611 E34.14919
G0 F6000 X101.56 Y110.045
G1 F1500 X109.954 Y118.44 E34.74147
G0 F6000 X110.52 Y118.44
G1 F1500 X101.56 Y109.479 E35.37368
G0 F6000 X101.56 Y108.914
G1 F1500 X111.086 Y118.44 E36.04579
G0 F6000 X111.651 Y118.44
G1 F1500 X101.56 Y108.348 E36.7578
G0 F6000 X101.56 Y107.782
G1 F1500 X112.217 Y118.44 E37.50974
G0 F6000 X112.783 Y118.44
G1 F1500 X101.56 Y107.216 E38.30162
G0 F6000 X101.56 Y106.651
G1 F1500 X113.349 Y118.44 E39.1334
G0 F6000 X113.914 Y118.44
G1 F1500 X101.56 Y106.085 E40.00508
G0 F6000 X101.56 Y105.519
G1 F1500 X114.48 Y118.44 E40.91669
G0 F6000 X115.046 Y118.44
G1 F1500 X101.56 Y104.954 E41.8682
G0 F6000 X101.56 Y104.388
G1 F1500 X115.611 Y118.44 E42.85961
G0 F6000 X116.177 Y118.44
G1 F1500 X101.56 Y103.822 E43.89095
G0 F6000 X101.56 Y103.257
G1 F1500 X116.743 Y118.44 E44.96219
G0 F6000 X117.308 Y118.44
G1 F1500 X101.56 Y102.691 E46.07334
G0 F6000 X101.56 Y102.125
G1 F1500 X117.874 Y118.44 E47.22441
G0 F6000 X118.44 Y118.44
G1 F1500 X101.56 Y101.56 E48.41539
G0 F6000 X102.126 Y101.56
G1 F1500 X118.44 Y117.874 E49.56643
G0 F6000 X118.44 Y117.308
G1 F1500 X102.692 Y101.56 E50.67753
G0 F6000 X103.257 Y101.56
G1 F1500 X118.44 Y116.743 E51.74878
G0 F6000 X118.44 Y116.177
G1 F1500 X103.823 Y101.56 E52.78009
G0 F6000 X104.389 Y101.56
G1 F1500 X118.44 Y115.611 E53.77146
G0 F6000 X118.44 Y115.046
G1 F1500 X104.954 Y101.56 E54.72297
G0 F6000 X105.52 Y101.56
G1 F1500 X118.44 Y114.48 E55.63455
G0 F6000 X118.44 Y113.914
G1 F1500 X106.086 Y101.56 E56.50619
G0 F6000 X106.652 Y101.56
G1 F1500 X118.44 Y113.349 E57.33793
G0 F6000 X118.44 Y112.783
G1 F1500 X107.217 Y101.56 E58.12977
G0 F6000 X107.783 Y101.56
G1 F1500 X118.44 Y112.217 E58.88168
G0 F6000 X118.44 Y111.651
G1 F1500 X108.349 Y101.56 E59.59366
G0 F6000 X108.914 Y101.56
G1 F1500 X118.44 Y111.086 E60.26577
G0 F6000 X118.44 Y110.52
G1 F1500 X109.48 Y101.56 E60.89794
G0 F6000 X110.046 Y101.56
G1 F1500 X118.44 Y109.954 E61.49018
G0 F6000 X118.44 Y109.389
G1 F1500 X110.611 Y101.56 E62.04256
G0 F6000 X111.177 Y101.56
G1 F1500 X118.44 Y108.823 E62.55501
G0 F6000 X118.44 Y108.257
G1 F1500 X111.743 Y101.56 E63.02752
G0 F6000 X112.308 Y101.56
G1 F1500 X118.44 Y107.692 E63.46016
G0 F6000 X118.44 Y107.126
G1 F1500 X112.874 Y101.56 E63.85287
G0 F6000 X113.44 Y101.56
G1 F1500 X118.44 Y106.56 E64.20565
G0 F6000 X118.44 Y105.995
G1 F1500 X114.005 Y101.56 E64.51856
G0 F6000 X114.571 Y101.56
G1 F1500 X118.44 Y105.429 E64.79154
G0 F6000 X118.44 Y104.863
M104 S232
G1 F1500 X115.137 Y101.56 E65.02459
G0 F6000 X115.702 Y101.56
G1 F1500 X118.44 Y104.298 E65.21777
G0 F6000 X118.44 Y103.732
G1 F1500 X116.268 Y101.56 E65.37101
G0 F6000 X116.834 Y101.56
G1 F1500 X118.44 Y103.166 E65.48433
G0 F6000 X118.44 Y102.6
G1 F1500 X117.4 Y101.56 E65.5577
G0 F6000 X117.965 Y101.56
G1 F1500 X118.44 Y102.035 E65.59122
G1 F2700 E55.59122
G1 F300 Z0.5
;MESH:NONMESH
G0 F6000 X97.789 Y97.704 Z0.5
;TIME_ELAPSED:72.841205
;LAYER:1
M140 S70
M106 S127.5
;TYPE:SKIRT
G1 F300 Z0.5
G1 F2700 E65.59122
G1 F900 X98.18 Y97.383 E65.60804
G1 X98.617 Y97.128 E65.62487
G1 X99.088 Y96.944 E65.64169
G1 X99.582 Y96.838 E65.65849
G1 X99.919 Y96.81 E65.66974
G1 X100.24 Y96.801 E65.68042
G1 X119.339 Y96.8 E66.31566
G1 X120.037 Y96.81 E66.33888
G1 X120.54 Y96.857 E66.35568
G1 X121.03 Y96.983 E66.37251
G1 X121.494 Y97.185 E66.38934
G1 X121.92 Y97.457 E66.40615
G1 X122.298 Y97.792 E66.42295
G1 X122.618 Y98.183 E66.43975
G1 X122.873 Y98.62 E66.45658
G1 X123.056 Y99.091 E66.47339
G1 X123.163 Y99.585 E66.4902
G1 X123.19 Y99.92 E66.50138
G1 X123.199 Y100.24 E66.51202
G1 X123.2 Y119.304 E67.1461
G1 X123.191 Y120.031 E67.17028
G1 X123.145 Y120.534 E67.18708
G1 X123.02 Y121.024 E67.2039
G1 X122.819 Y121.488 E67.22072
G1 X122.548 Y121.915 E67.23754
G1 X122.213 Y122.294 E67.25436
G1 X121.823 Y122.615 E67.27116
G1 X121.387 Y122.871 E67.28798
G1 X120.916 Y123.054 E67.30478
G1 X120.422 Y123.162 E67.3216
G1 X120.081 Y123.19 E67.33298
G1 X119.76 Y123.199 E67.34366
G1 X100.666 Y123.2 E67.97873
G1 X99.968 Y123.191 E68.00195
G1 X99.464 Y123.144 E68.01878
G1 X98.974 Y123.019 E68.0356
G1 X98.51 Y122.818 E68.05242
G1 X98.084 Y122.547 E68.06922
G1 X97.705 Y122.212 E68.08604
G1 X97.384 Y121.821 E68.10287
G1 X97.129 Y121.385 E68.11966
G1 X96.945 Y120.914 E68.13648
G1 X96.838 Y120.42 E68.15329
G1 X96.81 Y120.077 E68.16474
G1 X96.801 Y119.744 E68.17582
G1 X96.8 Y100.631 E68.81152
G1 X96.809 Y99.966 E68.83364
G1 X96.856 Y99.462 E68.85048
G1 X96.982 Y98.973 E68.86727
G1 X97.183 Y98.509 E68.88409
G1 X97.454 Y98.082 E68.90091
G1 X97.789 Y97.704 E68.91771
G1 F2700 E58.91771
G1 F300 Z0.7
;MESH:xyzCalibration_cube.stl
G0 F7500 X110 Y119 Z0.7
;TYPE:WALL-INNER
G1 F300 Z0.5
G1 F2700 E68.91771
G1 F1500 X119 Y119 E69.21705
G1 X119 Y101 E69.81573
G1 X101 Y101 E70.41442
G1 X101 Y119 E71.0131
G1 X110 Y119 E71.31244
G0 F7500 X110 Y119.4
G1 F1500 X119.4 Y119.4 E71.62509
G1 X119.4 Y100.6 E72.25038
G1 X100.6 Y100.6 E72.87567
G1 X100.6 Y119.4 E73.50096
G1 X110 Y119.4 E73.8136
G0 F7500 X110 Y119.8
;TYPE:WALL-OUTER
G1 F1500 X119.8 Y119.8 E74.13955
G1 X119.8 Y100.2 E74.79145
G1 X100.2 Y100.2 E75.44335
G1 X100.2 Y119.8 E76.09525
G1 X110 Y119.8 E76.4212
G0 F7500 X110 Y118.64
;TYPE:SKIN
G1 F1500 X101.36 Y118.64 E76.70857
G1 X101.36 Y101.36 E77.2833
G1 X118.64 Y101.36 E77.85804
G1 X118.64 Y118.64 E78.43277
G1 X110 Y118.64 E78.72014
G1 F2700 E68.72014
G1 F300 Z0.7
G0 F7500 X118.017 Y118.44 Z0.7
G1 F300 Z0.5
G1 F2700 E78.72014
G1 F1500 X118.44 Y118.017 E78.74003
G0 F7500 X118.44 Y117.451
G1 F1500 X117.451 Y118.44 E78.78655
G0 F7500 X116.885 Y118.44
G1 F1500 X118.44 Y116.885 E78.8597
G0 F7500 X118.44 Y116.32
G1 F1500 X116.32 Y118.44 E78.95942
G0 F7500 X115.754 Y118.44
G1 F1500 X118.44 Y115.754 E79.08576
G0 F7500 X118.44 Y115.188
G1 F1500 X115.188 Y118.44 E79.23872
G0 F7500 X114.623 Y118.44
G1 F1500 X118.44 Y114.623 E79.41826
G0 F7500 X118.44 Y114.057
G1 F1500 X114.057 Y118.44 E79.62442
G0 F7500 X113.491 Y118.44
G1 F1500 X118.44 Y113.491 E79.85721
G0 F7500 X118.44 Y112.926
G1 F1500 X112.926 Y118.44 E80.11657
G0 F7500 X112.36 Y118.44
G1 F1500 X118.44 Y112.36 E80.40256
G0 F7500 X118.44 Y111.794
G1 F1500 X111.794 Y118.44 E80.71516
G0 F7500 X111.229 Y118.44
G1 F1500 X118.44 Y111.229 E81.05435
G0 F7500 X118.44 Y110.663
G1 F1500 X110.663 Y118.44 E81.42015
G0 F7500 X110.097 Y118.44
G1 F1500 X118.44 Y110.097 E81.81258
G0 F7500 X118.44 Y109.532
G1 F1500 X109.532 Y118.44 E82.23159
G0 F7500 X108.966 Y118.44
G1 F1500 X118.44 Y108.966 E82.67721
G0 F7500 X118.44 Y108.4
G1 F1500 X108.4 Y118.44 E83.14947
G0 F7500 X107.834 Y118.44
G1 F1500 X118.44 Y107.834 E83.64834
G0 F7500 X118.44 Y107.269
G1 F1500 X107.269 Y118.44 E84.17379
G0 F7500 X106.703 Y118.44
G1 F1500 X118.44 Y106.703 E84.72586
G0 F7500 X118.44 Y106.137
G1 F1500 X106.137 Y118.44 E85.30456
G0 F7500 X105.572 Y118.44
G1 F1500 X118.44 Y105.572 E85.90983
G0 F7500 X118.44 Y105.006
G1 F1500 X105.006 Y118.44 E86.54172
G0 F7500 X104.44 Y118.44
G1 F1500 X118.44 Y104.44 E87.20024
G0 F7500 X118.44 Y103.875
G1 F1500 X103.875 Y118.44 E87.88533
G0 F7500 X103.309 Y118.44
G1 F1500 X118.44 Y103.309 E88.59705
G0 F7500 X118.44 Y102.743
G1 F1500 X102.743 Y118.44 E89.33539
G0 F7500 X102.178 Y118.44
G1 F1500 X118.44 Y102.178 E90.1003
G0 F7500 X118.44 Y101.612
G1 F1500 X101.612 Y118.44 E90.89184
G0 F7500 X101.56 Y117.926
G1 F1500 X117.926 Y101.56 E91.66165
G0 F7500 X117.361 Y101.56
G1 F1500 X101.56 Y117.36 E92.40485
G0 F7500 X101.56 Y116.794
G1 F1500 X116.795 Y101.56 E93.12144
G0 F7500 X116.229 Y101.56
G1 F1500 X101.56 Y116.229 E93.81142
G0 F7500 X101.56 Y115.663
G1 F1500 X115.664 Y101.56 E94.47481
G0 F7500 X115.098 Y101.56
G1 F1500 X101.56 Y115.097 E95.11157
G0 F7500 X101.56 Y114.531
G1 F1500 X114.532 Y101.56 E95.72171
G0 F7500 X113.967 Y101.56
G1 F1500 X101.56 Y113.966 E96.30527
G0 F7500 X101.56 Y113.4
G1 F1500 X113.401 Y101.56 E96.86221
G0 F7500 X112.835 Y101.56
G1 F1500 X101.56 Y112.834 E97.39253
G0 F7500 X101.56 Y112.269
G1 F1500 X112.269 Y101.56 E97.89625
G0 F7500 X111.704 Y101.56
G1 F1500 X101.56 Y111.703 E98.37337
G0 F7500 X101.56 Y111.137
G1 F1500 X111.138 Y101.56 E98.82387
G0 F7500 X110.572 Y101.56
G1 F1500 X101.56 Y110.572 E99.24776
G0 F7500 X101.56 Y110.006
G1 F1500 X110.007 Y101.56 E99.64506
G0 F7500 X109.441 Y101.56
G1 F1500 X101.56 Y109.44 E100.01573
G0 F7500 X101.56 Y108.875
G1 F1500 X108.875 Y101.56 E100.35981
G0 F7500 X108.31 Y101.56
